svg/color/baon.svg

<svg width="40" height="40" viewBox="0 0 40 40" fill="none" xmlns="http://www.w3.org/2000/svg">
<g clip-path="url(#clip0_820_3957)">
<path d="M20 0C31.0457 0 40 8.9543 40 20C40 31.0457 31.0457 40 20 40C8.95431 40 7.90517e-06 31.0457 0 20C6.58765e-07 8.95431 8.95431 1.97595e-06 20 0Z" fill="#D2D9EB"/>
<path d="M26 6C30.4183 6 34 9.58172 34 14V26C34 30.4183 30.4183 34 26 34H14C9.58172 34 6 30.4183 6 26V14C6 9.58172 9.58172 6 14 6H26Z" fill="#1D439C"/>
<path d="M15.7537 24.4056C14.6171 24.4077 13.5131 24.0257 12.6208 23.3216C13.6248 21.0594 15.6662 18.0232 18.4524 15.0578C19.4995 15.7155 20.2694 16.7339 20.6167 17.9206C20.9639 19.1074 20.8645 20.3802 20.3372 21.4986C19.4539 21.0903 18.6291 20.5769 17.9308 19.9321L19.4564 22.7967C18.9831 23.3052 18.41 23.7105 17.7729 23.9874C17.1358 24.2642 16.4484 24.4066 15.7537 24.4056ZM10.691 19.343C10.6908 18.678 10.8216 18.0194 11.076 17.4049C11.3304 16.7904 11.7033 16.2321 12.1735 15.7618C12.6438 15.2915 13.202 14.9185 13.8165 14.664C14.4309 14.4095 15.0895 14.2786 15.7545 14.2787C16.5043 14.2787 17.2151 14.442 17.8567 14.7337C15.1121 17.1583 12.9873 19.9779 11.7292 22.4151C11.0542 21.5331 10.6892 20.4529 10.691 19.3422M20.9746 21.7694C21.3287 21.0093 21.5113 20.1807 21.5095 19.3422C21.5095 17.3424 20.4888 15.5802 18.939 14.5479C19.8877 13.571 20.884 12.6417 21.9244 11.7632C20.6916 12.4916 19.5212 13.3207 18.425 14.242C17.2386 13.6211 15.8729 13.4332 14.5629 13.7107C13.2529 13.9883 12.0807 14.7139 11.248 15.7626C10.4154 16.8113 9.9745 18.1176 10.0012 19.4564C10.0279 20.7951 10.5206 22.0827 11.3943 23.0974C10.2911 25.483 10.0994 27.3985 11.0708 28.0451C12.1116 28.7384 14.3729 27.481 15.7294 25.433C15.7294 25.433 13.6313 27.3277 12.4782 26.8928C11.7683 26.6244 11.7658 25.5388 12.3515 23.9824C13.3375 24.7082 14.5301 25.0989 15.7544 25.0972C17.3325 25.0972 18.7598 24.4639 19.7988 23.4374L20.003 23.8224C22.5109 23.6183 29.9999 23.4199 29.9999 23.4199C29.9999 23.0608 25.0414 23.3866 20.9728 21.7702" fill="white"/>
</g>
<defs>
<clipPath id="clip0_820_3957">
<rect width="40" height="40" fill="white"/>
</clipPath>
</defs>
</svg>

<svg xmlns="http://www.w3.org/2000/svg" width="40" height="40" fill="none" viewBox="0 0 40 40"><g clip-path="url(#baon_svg-a)"><path fill="#D2D9EB" d="M20 0c11.046 0 20 8.954 20 20s-8.954 20-20 20S0 31.046 0 20 8.954 0 20 0"/><path fill="#1D439C" d="M26 6a8 8 0 0 1 8 8v12a8 8 0 0 1-8 8H14a8 8 0 0 1-8-8V14a8 8 0 0 1 8-8z"/><path fill="#fff" d="M15.754 24.406a5.04 5.04 0 0 1-3.133-1.084c1.004-2.263 3.045-5.299 5.831-8.264a5.06 5.06 0 0 1 1.885 6.44c-.883-.408-1.708-.921-2.406-1.566l1.525 2.865a5.05 5.05 0 0 1-3.702 1.609m-5.063-5.063a5.063 5.063 0 0 1 7.166-4.61c-2.745 2.425-4.87 5.245-6.128 7.682a5.04 5.04 0 0 1-1.038-3.073m10.284 2.427c.354-.76.536-1.588.534-2.427 0-2-1.02-3.762-2.57-4.794a41 41 0 0 1 2.985-2.785 26 26 0 0 0-3.499 2.479 5.756 5.756 0 0 0-7.03 8.855c-1.104 2.386-1.296 4.301-.324 4.948 1.04.693 3.302-.564 4.658-2.612 0 0-2.098 1.895-3.25 1.46-.71-.269-.713-1.354-.127-2.91a5.73 5.73 0 0 0 3.402 1.114 5.73 5.73 0 0 0 4.045-1.66l.204.385C22.511 23.618 30 23.42 30 23.42c0-.36-4.959-.033-9.027-1.65"/></g><defs><clipPath id="baon_svg-a"><path fill="#fff" d="M0 0h40v40H0z"/></clipPath></defs></svg>
